packages/calcite-ui-icons/icons/geometric-network-24.svg

<?xml version="1.0" encoding="UTF-8"?><svg id="icons" xmlns="http://www.w3.org/2000/svg" viewBox="0 0 24 24"><defs><style>.cls-1{fill:none;}</style></defs><rect class="cls-1" width="24" height="24"/><path d="M21.5,19c-.23932,0-.46619.04443-.68542.10748l-.10748-.10748h.29291c1.10455,0,2-.89545,2-2V7c0-1.10461-.89545-2-2-2h-5v-.05054c1.13995-.23224,2-1.24182,2-2.44946,0-1.37891-1.12109-2.5-2.5-2.5s-2.5,1.12109-2.5,2.5c0,1.20764.86005,2.21722,2,2.44946v.05054h-7c-1.10455,0-2,.89539-2,2v6h-.05054c-.23224-1.13995-1.24182-2-2.44946-2-1.37891,0-2.5,1.12109-2.5,2.5s1.12109,2.5,2.5,2.5c1.20764,0,2.21722-.86005,2.44946-2h.05054v3c0,1.10455.89545,2,2,2h11.29291l.60046.60046c-.54169.45886-.89337,1.13538-.89337,1.89954,0,1.37891,1.12109,2.5,2.5,2.5s2.5-1.12109,2.5-2.5-1.12109-2.5-2.5-2.5ZM21.0047,6c.54968,0,.9953.44556.9953.99524v10.00946c0,.54968-.44562.9953-.9953.9953h-1.29761l-2.60046-2.60046c.54169-.45886.89337-1.13538.89337-1.89954,0-1.20764-.86005-2.21722-2-2.44946v-5.05054h5.0047ZM15.29291,15h-.29291c-.55231,0-1-.44775-1-1v-1c0-.55231.44769-1,1-1h1c.55231,0,1,.44769,1,1v1c0,.55225-.44769,1-1,1h-.70709ZM14,3v-1c0-.55231.44769-1,1-1h1c.55231,0,1,.44769,1,1v1c0,.55225-.44769,1-1,1h-1c-.55231,0-1-.44775-1-1ZM7,6.99524c0-.54968.44562-.99524.9953-.99524h7.0047v5.05054c-.97833.19934-1.75012.97113-1.94946,1.94946h-6.05054v-6.00476ZM4,15h-1c-.55231,0-1-.44775-1-1v-1c0-.55231.44769-1,1-1h1c.55231,0,1,.44769,1,1v1c0,.55225-.44769,1-1,1ZM7.9953,18c-.54968,0-.9953-.44562-.9953-.9953v-3.0047h6.05054c.23224,1.13995,1.24182,2,2.44946,2,.23932,0,.46619-.04443.68542-.10748l2.10748,2.10748H7.9953ZM23,22c0,.55225-.44769,1-1,1h-1c-.55231,0-1-.44775-1-1v-1c0-.55231.44769-1,1-1h1c.55231,0,1,.44769,1,1v1Z"/></svg>

<svg xmlns="http://www.w3.org/2000/svg" viewBox="0 0 24 24"><path d="M0 0h24v24H0z" style="fill:none"/><path d="M21.5 19c-.24 0-.466.044-.685.107L20.707 19H21a2 2 0 0 0 2-2V7a2 2 0 0 0-2-2h-5v-.05c1.14-.233 2-1.242 2-2.45C18 1.121 16.879 0 15.5 0S13 1.121 13 2.5c0 1.208.86 2.217 2 2.45V5H8a2 2 0 0 0-2 2v6h-.05a2.5 2.5 0 0 0-2.45-2C2.121 11 1 12.121 1 13.5S2.121 16 3.5 16c1.208 0 2.217-.86 2.45-2H6v3a2 2 0 0 0 2 2h11.293l.6.6A2.48 2.48 0 0 0 19 21.5c0 1.379 1.121 2.5 2.5 2.5s2.5-1.121 2.5-2.5-1.121-2.5-2.5-2.5m-.495-13c.55 0 .995.446.995.995v10.01c0 .55-.446.995-.995.995h-1.298l-2.6-2.6A2.48 2.48 0 0 0 18 13.5c0-1.208-.86-2.217-2-2.45V6zm-5.712 9H15a1 1 0 0 1-1-1v-1a1 1 0 0 1 1-1h1a1 1 0 0 1 1 1v1a1 1 0 0 1-1 1zM14 3V2a1 1 0 0 1 1-1h1a1 1 0 0 1 1 1v1a1 1 0 0 1-1 1h-1a1 1 0 0 1-1-1M7 6.995c0-.55.446-.995.995-.995H15v5.05A2.51 2.51 0 0 0 13.05 13H7zM4 15H3a1 1 0 0 1-1-1v-1a1 1 0 0 1 1-1h1a1 1 0 0 1 1 1v1a1 1 0 0 1-1 1m3.995 3A.995.995 0 0 1 7 17.005V14h6.05c.233 1.14 1.242 2 2.45 2 .24 0 .466-.044.685-.107L18.293 18zM23 22a1 1 0 0 1-1 1h-1a1 1 0 0 1-1-1v-1a1 1 0 0 1 1-1h1a1 1 0 0 1 1 1z"/></svg>
